X:1
T:All is Found
T:All is Found (Frozen II)
T:Evan Rachel Wood 
T:Kristen Anderson-Lopez, Robert Lopez
T:Christophe Beck
C:Evan
Z:Kristen
L:1/8
Q:1/4=160
M:4/4
K:C
V:1 treble nm="Piano" snm="Pno."
V:1
 z4 c3 d | e2 A6 | z4 c2 A2- | A2 d6 | z4 d3 g | a2 c6 | z4 g2 f2 | ed e6 | z4 f3 e | d2 A2 A2 B2 | %10
w: Where the|north wind|meets the|* sea|There's a|ri- ver|full of|me- mo- ry|Sleep, my|dar- ling, safe and|
 c8 | z2 z c c2 c2 | B2 G2 G2 A2- | A2 A6- | A8 | z8 | z4 c3 d | e2 A6 | z4 c2 A2- | A2 d6 | %20
w: sound|For in this|ri- ver all is|* found|||In her|wa- ters,|deep and|* true|
 z4 d3 g | a4 c4 | z4 g3 f | e2 d2 e4- | e2 z2 f2 e2 | d2 A2 A2 B2 | c8 | z2 z c c2 c2 | %28
w: Lie the|an- swers|and a|path for you|* Dive down|deep in- to her|sound|But not too|
 B3 G G3 A- | A2 A6- | A8 | z8 | z4 g4 | a6 b2 | c'2 b2 a2 g2- | g2 ed e4- | e2 z2 f2 e2 | d8 | %38
w: far or you'll be|* drowned|||Yes,|she will|sing to those who'll|* hear * *|* in her|song,|
 z2 A2 A2 c2 | d4- dcde | f4 z2 g2 | a6 b2 | c'2 b2 a2 g2- | g2 ed e4- | e2 z2 f2 e2 | d8 | %46
w: all ma- gic|flows * * * *|* But|can you|brave what you most|* fear? * *|* Can you|face|
 z2 AG A2 B2- | B2 c6- | c8 | z8 | z4 ^c3 ^d | f2 _B6 | z4 _d2 _B2- | _B2 _e6 | z4 _e3 _a | %55
w: what the ri- ver|* knows?|||Where the|north wind|meets the|* sea|There's a|
 _b2 _d6 | z4 _a2 _g2 | f_e f6 | z4 _g3 f | _e2 _B2 _B2 c2- | c2 _d6 | z2 z _d _d2 _d2 | c8 | %63
w: mo- ther|full of|me- mo- ry|Come, my|dar- ling, home- ward|* bound|When all is|lost,|
 z2 z _A _A2 _B2- | B2 _B6- | B6 z2 |] %66
w: then all is|* found||

